status/48/battery-full.svg

<?xml version="1.0" encoding="UTF-8" standalone="no"?>
<svg
   xmlns:dc="http://purl.org/dc/elements/1.1/"
   xmlns:cc="http://creativecommons.org/ns#"
   xmlns:rdf="http://www.w3.org/1999/02/22-rdf-syntax-ns#"
   xmlns:svg="http://www.w3.org/2000/svg"
   xmlns="http://www.w3.org/2000/svg"
   xmlns:xlink="http://www.w3.org/1999/xlink"
   version="1.0"
   width="48"
   height="48"
   id="svg2485">
  <metadata
     id="metadata71">
    <rdf:RDF>
      <cc:Work
         rdf:about="">
        <dc:format>image/svg+xml</dc:format>
        <dc:type
           rdf:resource="http://purl.org/dc/dcmitype/StillImage" />
        <dc:title />
      </cc:Work>
    </rdf:RDF>
  </metadata>
  <defs
     id="defs2487">
    <linearGradient
       id="linearGradient5126">
      <stop
         id="stop5128"
         style="stop-color:#ffffff;stop-opacity:1"
         offset="0" />
      <stop
         id="stop5130"
         style="stop-color:#ffffff;stop-opacity:0"
         offset="1" />
    </linearGradient>
    <linearGradient
       id="linearGradient5118">
      <stop
         id="stop5120"
         style="stop-color:#9d9d9d;stop-opacity:1"
         offset="0" />
      <stop
         id="stop5122"
         style="stop-color:#ffffff;stop-opacity:1"
         offset="1" />
    </linearGradient>
    <linearGradient
       id="linearGradient4762">
      <stop
         id="stop4764"
         style="stop-color:#ffffff;stop-opacity:1"
         offset="0" />
      <stop
         id="stop4766"
         style="stop-color:#ffffff;stop-opacity:0.23529412"
         offset="0.02777778" />
      <stop
         id="stop4768"
         style="stop-color:#ffffff;stop-opacity:0.15686275"
         offset="0.97222221" />
      <stop
         id="stop4770"
         style="stop-color:#ffffff;stop-opacity:0.39215687"
         offset="1" />
    </linearGradient>
    <linearGradient
       x1="-5.0010252"
       y1="35"
       x2="46.68"
       y2="35"
       id="linearGradient4393"
       xlink:href="#linearGradient4223"
       gradientUnits="userSpaceOnUse"
       gradientTransform="matrix(0.92592593,0,0,1.9473684,1.7777778,-42.157895)" />
    <linearGradient
       id="linearGradient3254-3-182-8-5">
      <stop
         id="stop4663-8-7"
         style="stop-color:#ffffff;stop-opacity:1"
         offset="0" />
      <stop
         id="stop4665-7-6"
         style="stop-color:#ffffff;stop-opacity:0"
         offset="1" />
    </linearGradient>
    <linearGradient
       x1="30"
       y1="7"
       x2="30"
       y2="43"
       id="linearGradient4760"
       xlink:href="#linearGradient4762"
       gradientUnits="userSpaceOnUse" />
    <linearGradient
       x1="-20.446733"
       y1="-93.091553"
       x2="-48.479328"
       y2="-93.091553"
       id="linearGradient3457-7-6"
       xlink:href="#linearGradient2793-2-0-669-94-2"
       gradientUnits="userSpaceOnUse"
       gradientTransform="matrix(0.1783638,0,0,0.1558618,28.646957,19.509417)"
       spreadMethod="reflect" />
    <linearGradient
       id="linearGradient2793-2-0-669-94-2">
      <stop
         id="stop4681-3-1"
         style="stop-color:#b4b4b4;stop-opacity:1"
         offset="0" />
      <stop
         id="stop4683-67-4"
         style="stop-color:#ffffff;stop-opacity:1"
         offset="1" />
    </linearGradient>
    <linearGradient
       x1="-17.12093"
       y1="-93.091553"
       x2="-45.761551"
       y2="-93.091553"
       id="linearGradient5066-8"
       xlink:href="#linearGradient5118"
       gradientUnits="userSpaceOnUse"
       gradientTransform="matrix(0.61425314,0,0,0.1558618,40.07214,19.732487)"
       spreadMethod="reflect" />
    <radialGradient
       cx="16.5"
       cy="7.5"
       r="3.5"
       fx="16.5"
       fy="7.5"
       id="radialGradient5132"
       xlink:href="#linearGradient5126"
       gradientUnits="userSpaceOnUse"
       gradientTransform="matrix(1,0,0,0.42857143,0,4.2857143)" />
    <linearGradient
       id="linearGradient3820-7-2-1-2-6">
      <stop
         id="stop3822-2-6-3-3-7"
         style="stop-color:#3d3d3d;stop-opacity:1"
         offset="0" />
      <stop
         id="stop3864-8-7-7-9-1"
         style="stop-color:#686868;stop-opacity:0.49803922"
         offset="0.5" />
      <stop
         id="stop3824-1-2-5-0-3"
         style="stop-color:#686868;stop-opacity:0"
         offset="1" />
    </linearGradient>
    <radialGradient
       cx="99.157013"
       cy="186.17059"
       r="62.769119"
       fx="99.157013"
       fy="186.17059"
       id="radialGradient5362"
       xlink:href="#linearGradient3820-7-2-1-2-6"
       gradientUnits="userSpaceOnUse"
       gradientTransform="matrix(0.2549024,0,0,0.07169133,-1.275361,29.153187)" />
    <linearGradient
       x1="13.681819"
       y1="17.458462"
       x2="17.77273"
       y2="35.717499"
       id="linearGradient5508"
       xlink:href="#linearGradient3254-3-182-8-5"
       gradientUnits="userSpaceOnUse"
       gradientTransform="matrix(1.4666658,0,0,2.0811612,-6.0666553,-30.333874)" />
    <linearGradient
       x1="25.272734"
       y1="17.458462"
       x2="27.31819"
       y2="35.717499"
       id="linearGradient5510"
       xlink:href="#linearGradient3254-3-182-8-5"
       gradientUnits="userSpaceOnUse"
       gradientTransform="matrix(1.4666658,0,0,2.0811612,-6.0666553,-30.333874)" />
    <linearGradient
       id="linearGradient4223">
      <stop
         id="stop4225"
         style="stop-color:#cdf87e;stop-opacity:1"
         offset="0" />
      <stop
         id="stop4227"
         style="stop-color:#a2e34f;stop-opacity:1"
         offset="0.26238" />
      <stop
         id="stop4229"
         style="stop-color:#68b723;stop-opacity:1"
         offset="0.66093999" />
      <stop
         id="stop4231"
         style="stop-color:#1d7e0d;stop-opacity:1"
         offset="1" />
    </linearGradient>
  </defs>
  <path
     d="M 40,42.5 A 16,4.5 0 0 1 7.9999998,42.5 16,4.5 0 1 1 40,42.5 z"
     id="path3818-0-5"
     style="fill:url(#radialGradient5362);fill-opacity:1;stroke:none" />
  <rect
     width="25"
     height="37"
     rx="13.5"
     ry="1.5000002"
     x="11.5"
     y="7.5"
     id="rect3268-0-1"
     style="color:#000000;fill:url(#linearGradient4393);fill-opacity:1;fill-rule:nonzero;stroke:none;stroke-width:1;marker:none;visibility:visible;display:inline;overflow:visible;enable-background:accumulate" />
  <path
     d="M 36.5,9 C 36.5,8.169 30.925,7.5 24,7.5 17.075,7.5 11.5,8.169 11.5,9"
     id="rect3268-0"
     style="opacity:0.5;color:#000000;fill:none;stroke:#0f7d00;stroke-width:1;stroke-linecap:butt;stroke-linejoin:round;stroke-miterlimit:4;stroke-opacity:1;stroke-dasharray:none;stroke-dashoffset:0;marker:none;visibility:visible;display:inline;overflow:visible;enable-background:accumulate" />
  <path
     d="M 24,5.5 C 17.075,5.5 11.5,6.169 11.5,7 l 0,2 c 0,-0.831 5.575,-1.5 12.5,-1.5 6.925,0 12.5,0.669 12.5,1.5 l 0,-2 C 36.5,6.169 30.925,5.5 24,5.5 z"
     id="rect3268-6-4"
     style="color:#000000;fill:url(#linearGradient5066-8);fill-opacity:1;fill-rule:nonzero;stroke:none;stroke-width:1;marker:none;visibility:visible;display:inline;overflow:visible;enable-background:accumulate" />
  <path
     d="M 11.5,9 C 11.5,8.169 17.075,7.5 24,7.5 30.925,7.5 36.5,8.169 36.5,9"
     id="rect3268-6"
     style="opacity:0.3;color:#000000;fill:none;stroke:#000000;stroke-width:1;stroke-linecap:butt;stroke-linejoin:miter;stroke-miterlimit:7;stroke-opacity:1;stroke-dasharray:none;stroke-dashoffset:0;marker:none;visibility:visible;display:block;overflow:visible;enable-background:accumulate" />
  <path
     d="m 27.5,5.5625 0,-1.21875 C 27.5,3.8749017 25.939,3.5 24,3.5 c -1.939,0 -3.5,0.3749017 -3.5,0.84375 l 0,1.21875"
     id="rect3268-3-9"
     style="color:#000000;fill:url(#linearGradient3457-7-6);fill-opacity:1;fill-rule:nonzero;stroke:none;stroke-width:1;marker:none;visibility:visible;display:inline;overflow:visible;enable-background:accumulate" />
  <path
     d="m 27.5,5.5625 0,-1.21875 C 27.5,3.8749017 25.939,3.5 24,3.5 c -1.939,0 -3.5,0.3749017 -3.5,0.84375 l 0,1.21875"
     id="rect3268-3"
     style="opacity:0.3;color:#000000;fill:none;stroke:#000000;stroke-width:0.99999994;stroke-linecap:butt;stroke-linejoin:miter;stroke-miterlimit:7;stroke-opacity:1;stroke-dasharray:none;stroke-dashoffset:0;marker:none;visibility:visible;display:block;overflow:visible;enable-background:accumulate" />
  <path
     d="m 24,6.5 c -3.709888,0 -7.052717,0.1725241 -9.4375,0.4375 -1.192392,0.132488 -2.155165,0.2807189 -2.75,0.4375 -0.16358,0.043115 -0.213184,0.056865 -0.3125,0.09375 l 0,35.0625 c 0.09932,0.03688 0.14892,0.05063 0.3125,0.09375 0.594835,0.156781 1.557608,0.305012 2.75,0.4375 C 16.947283,43.327476 20.290112,43.5 24,43.5 c 3.709888,0 7.052717,-0.172524 9.4375,-0.4375 1.192392,-0.132488 2.155165,-0.280719 2.75,-0.4375 0.16358,-0.04312 0.213184,-0.05687 0.3125,-0.09375 l 0,-35.0625 C 36.400684,7.4318648 36.35108,7.4181148 36.1875,7.375 35.592665,7.2182189 34.629892,7.069988 33.4375,6.9375 31.052717,6.6725241 27.709888,6.5 24,6.5 z"
     transform="matrix(0.92,0,0,1,1.92,0)"
     id="path4752"
     style="opacity:0.8;color:#000000;fill:none;stroke:url(#linearGradient4760);stroke-width:1.04257202;stroke-linecap:butt;stroke-linejoin:miter;stroke-miterlimit:7;stroke-opacity:1;stroke-dasharray:none;stroke-dashoffset:0;marker:none;visibility:visible;display:block;overflow:visible;enable-background:accumulate" />
  <rect
     width="25"
     height="39"
     rx="13.5"
     ry="1.5"
     x="11.5"
     y="5.5"
     id="rect3268"
     style="opacity:0.3;color:#000000;fill:none;stroke:#000000;stroke-width:1;stroke-linecap:butt;stroke-linejoin:miter;stroke-miterlimit:7;stroke-opacity:1;stroke-dasharray:none;stroke-dashoffset:0;marker:none;visibility:visible;display:block;overflow:visible;enable-background:accumulate" />
  <path
     d="M 20,5.59375 C 16.787316,5.7149057 15.492733,5.9541603 14,6.3125 l 0,37.375 c 1.492733,0.35834 2.787316,0.597594 6,0.71875 z"
     id="path5194"
     style="opacity:0.3;fill:url(#linearGradient5508);fill-opacity:1;fill-rule:nonzero;stroke:none;stroke-width:1;marker:none;visibility:visible;display:inline;overflow:visible" />
  <path
     d="m 31,5.875 0,38.25 c 1.136673,-0.123654 2.304289,-0.27049 3,-0.4375 L 34,6.3125 C 33.304289,6.1454904 32.136673,5.9986542 31,5.875 z"
     id="rect3244"
     style="opacity:0.1;fill:url(#linearGradient5510);fill-opacity:1;fill-rule:nonzero;stroke:none;stroke-width:1;marker:none;visibility:visible;display:inline;overflow:visible" />
  <path
     d="m 20,7.5 a 3.5,1.5 0 1 1 -7,0 3.5,1.5 0 1 1 7,0 z"
     transform="matrix(0.90865815,0,0,2.0656555,1.5071413,-8.7383745)"
     id="path5124"
     style="opacity:0.2;color:#000000;fill:url(#radialGradient5132);fill-opacity:1;fill-rule:nonzero;stroke:none;stroke-width:1;marker:none;visibility:visible;display:inline;overflow:visible;enable-background:accumulate" />
  <path
     d="M 35.969003,9.564443 C 34.420917,8.947168 29.661637,8.5 24,8.5 18.35733,8.5 13.61098,8.944177 12.046663,9.558245"
     id="rect3268-0-7"
     style="opacity:0.2;color:#000000;fill:none;stroke:#ffffff;stroke-width:0.99999994;stroke-linecap:butt;stroke-linejoin:miter;stroke-miterlimit:7;stroke-opacity:1;stroke-dasharray:none;stroke-dashoffset:0;marker:none;visibility:visible;display:block;overflow:visible;enable-background:accumulate" />
</svg>

<svg xmlns="http://www.w3.org/2000/svg" xmlns:xlink="http://www.w3.org/1999/xlink" version="1" width="48" height="48"><defs><linearGradient id="e"><stop offset="0" stop-color="#fff"/><stop offset="1" stop-color="#fff" stop-opacity="0"/></linearGradient><linearGradient id="d"><stop offset="0" stop-color="#9d9d9d"/><stop offset="1" stop-color="#fff"/></linearGradient><linearGradient id="b"><stop offset="0" stop-color="#fff"/><stop offset=".028" stop-color="#fff" stop-opacity=".235"/><stop offset=".972" stop-color="#fff" stop-opacity=".157"/><stop offset="1" stop-color="#fff" stop-opacity=".392"/></linearGradient><linearGradient x1="-5.001" y1="35" x2="46.68" y2="35" id="i" xlink:href="#a" gradientUnits="userSpaceOnUse" gradientTransform="matrix(.92593 0 0 1.94737 1.778 -42.158)"/><linearGradient id="g"><stop offset="0" stop-color="#fff"/><stop offset="1" stop-color="#fff" stop-opacity="0"/></linearGradient><linearGradient x1="30" y1="7" x2="30" y2="43" id="l" xlink:href="#b" gradientUnits="userSpaceOnUse"/><linearGradient x1="-20.447" y1="-93.092" x2="-48.479" y2="-93.092" id="k" xlink:href="#c" gradientUnits="userSpaceOnUse" gradientTransform="matrix(.17836 0 0 .15586 28.647 19.51)" spreadMethod="reflect"/><linearGradient id="c"><stop offset="0" stop-color="#b4b4b4"/><stop offset="1" stop-color="#fff"/></linearGradient><linearGradient x1="-17.121" y1="-93.092" x2="-45.762" y2="-93.092" id="j" xlink:href="#d" gradientUnits="userSpaceOnUse" gradientTransform="matrix(.61425 0 0 .15586 40.072 19.732)" spreadMethod="reflect"/><radialGradient cx="16.5" cy="7.5" r="3.5" fx="16.5" fy="7.5" id="o" xlink:href="#e" gradientUnits="userSpaceOnUse" gradientTransform="matrix(1 0 0 .42857 0 4.286)"/><linearGradient id="f"><stop offset="0" stop-color="#3d3d3d"/><stop offset=".5" stop-color="#686868" stop-opacity=".498"/><stop offset="1" stop-color="#686868" stop-opacity="0"/></linearGradient><radialGradient cx="99.157" cy="186.171" r="62.769" fx="99.157" fy="186.171" id="h" xlink:href="#f" gradientUnits="userSpaceOnUse" gradientTransform="matrix(.255 0 0 .0717 -1.275 29.153)"/><linearGradient x1="13.682" y1="17.458" x2="17.773" y2="35.717" id="m" xlink:href="#g" gradientUnits="userSpaceOnUse" gradientTransform="matrix(1.46667 0 0 2.08116 -6.067 -30.334)"/><linearGradient x1="25.273" y1="17.458" x2="27.318" y2="35.717" id="n" xlink:href="#g" gradientUnits="userSpaceOnUse" gradientTransform="matrix(1.46667 0 0 2.08116 -6.067 -30.334)"/><linearGradient id="a"><stop offset="0" stop-color="#cdf87e"/><stop offset=".262" stop-color="#a2e34f"/><stop offset=".661" stop-color="#68b723"/><stop offset="1" stop-color="#1d7e0d"/></linearGradient></defs><path d="M40 42.5a16 4.5 0 0 1-32 0 16 4.5 0 1 1 32 0z" fill="url(#h)"/><rect width="25" height="37" rx="13.5" ry="1.5" x="11.5" y="7.5" color="#000" fill="url(#i)" overflow="visible"/><path d="M36.5 9c0-.83-5.575-1.5-12.5-1.5S11.5 8.17 11.5 9" opacity=".5" color="#000" fill="none" stroke="#0f7d00" stroke-linejoin="round" overflow="visible"/><path d="M24 5.5c-6.925 0-12.5.67-12.5 1.5v2c0-.83 5.575-1.5 12.5-1.5s12.5.67 12.5 1.5V7c0-.83-5.575-1.5-12.5-1.5z" color="#000" fill="url(#j)" overflow="visible"/><path d="M11.5 9c0-.83 5.575-1.5 12.5-1.5s12.5.67 12.5 1.5" opacity=".3" color="#000" fill="none" stroke="#000" stroke-miterlimit="7" display="block" overflow="visible"/><path d="M27.5 5.563v-1.22c0-.468-1.56-.843-3.5-.843s-3.5.375-3.5.844v1.218" color="#000" fill="url(#k)" overflow="visible"/><path d="M27.5 5.563v-1.22c0-.468-1.56-.843-3.5-.843s-3.5.375-3.5.844v1.218" opacity=".3" color="#000" fill="none" stroke="#000" stroke-miterlimit="7" display="block" overflow="visible"/><path d="M24 6.5c-3.71 0-7.053.173-9.438.438-1.192.132-2.155.28-2.75.437a2.78 2.78 0 0 0-.312.094v35.06c.1.036.15.05.313.093.594.157 1.557.305 2.75.438 2.384.265 5.727.438 9.437.438 3.71 0 7.053-.174 9.438-.44 1.192-.13 2.155-.28 2.75-.436.163-.043.213-.057.312-.094V7.47a2.78 2.78 0 0 0-.313-.095c-.594-.157-1.557-.305-2.75-.438C31.053 6.673 27.71 6.5 24 6.5z" transform="matrix(.92 0 0 1 1.92 0)" opacity=".8" color="#000" fill="none" stroke="url(#l)" stroke-width="1.043" stroke-miterlimit="7" display="block" overflow="visible"/><rect width="25" height="39" rx="13.5" ry="1.5" x="11.5" y="5.5" opacity=".3" color="#000" fill="none" stroke="#000" stroke-miterlimit="7" display="block" overflow="visible"/><path d="M20 5.594c-3.213.12-4.507.36-6 .718v37.376c1.493.358 2.787.597 6 .718z" opacity=".3" fill="url(#m)" overflow="visible"/><path d="M31 5.875v38.25c1.137-.124 2.304-.27 3-.438V6.313c-.696-.168-1.863-.314-3-.438z" opacity=".1" fill="url(#n)" overflow="visible"/><path d="M20 7.5a3.5 1.5 0 1 1-7 0 3.5 1.5 0 1 1 7 0z" transform="matrix(.90866 0 0 2.06566 1.507 -8.738)" opacity=".2" color="#000" fill="url(#o)" overflow="visible"/><path d="M35.97 9.564C34.42 8.947 29.66 8.5 24 8.5c-5.643 0-10.39.444-11.953 1.058" opacity=".2" color="#000" fill="none" stroke="#fff" stroke-miterlimit="7" display="block" overflow="visible"/></svg>
